src/assets/images/icons/github.svg

<svg width="20" height="20" fill="none" xmlns="http://www.w3.org/2000/svg"><path fill-rule="evenodd" clip-rule="evenodd" d="M10 0C4.477 0 0 4.484 0 10.017c0 4.425 2.865 8.18 6.839 9.504.5.092.682-.217.682-.483 0-.237-.008-.868-.013-1.703-2.782.605-3.369-1.343-3.369-1.343-.454-1.158-1.11-1.466-1.11-1.466-.908-.62.069-.608.069-.608 1.003.07 1.531 1.032 1.531 1.032.892 1.53 2.341 1.088 2.91.832.092-.647.35-1.088.636-1.338-2.22-.253-4.555-1.113-4.555-4.951 0-1.093.39-1.988 1.029-2.688-.103-.253-.446-1.272.098-2.65 0 0 .84-.27 2.75 1.026A9.564 9.564 0 0 1 10 4.844a9.59 9.59 0 0 1 2.504.337c1.909-1.296 2.747-1.027 2.747-1.027.546 1.379.202 2.398.1 2.651.64.7 1.028 1.595 1.028 2.688 0 3.848-2.339 4.695-4.566 4.943.359.309.678.92.678 1.855 0 1.338-.012 2.419-.012 2.747 0 .268.18.58.688.482A10.02 10.02 0 0 0 20 10.017C20 4.484 15.522 0 10 0Z" fill="#98A2B3"/></svg>

<svg width="20" height="20" viewBox="0 0 20 20" fill="none" xmlns="http://www.w3.org/2000/svg">
<path fill-rule="evenodd" clip-rule="evenodd" d="M10 0C4.477 0 0 4.484 0 10.017C0 14.442 2.865 18.197 6.839 19.521C7.339 19.613 7.521 19.304 7.521 19.038C7.521 18.801 7.513 18.17 7.508 17.335C4.726 17.94 4.139 15.992 4.139 15.992C3.685 14.834 3.029 14.526 3.029 14.526C2.121 13.906 3.098 13.918 3.098 13.918C4.101 13.988 4.629 14.95 4.629 14.95C5.521 16.48 6.97 16.038 7.539 15.782C7.631 15.135 7.889 14.694 8.175 14.444C5.955 14.191 3.62 13.331 3.62 9.493C3.62 8.4 4.01 7.505 4.649 6.805C4.546 6.552 4.203 5.533 4.747 4.155C4.747 4.155 5.587 3.885 7.497 5.181C8.31277 4.95851 9.15444 4.84519 10 4.844C10.85 4.848 11.705 4.959 12.504 5.181C14.413 3.885 15.251 4.154 15.251 4.154C15.797 5.533 15.453 6.552 15.351 6.805C15.991 7.505 16.379 8.4 16.379 9.493C16.379 13.341 14.04 14.188 11.813 14.436C12.172 14.745 12.491 15.356 12.491 16.291C12.491 17.629 12.479 18.71 12.479 19.038C12.479 19.306 12.659 19.618 13.167 19.52C15.1583 18.8521 16.8893 17.5753 18.1155 15.87C19.3416 14.1648 20.0009 12.1173 20 10.017C20 4.484 15.522 0 10 0Z" fill="#98A2B3"/>
</svg>
